img/booking.svg

<svg fill="none" height="16" viewBox="0 0 16 16" width="16" xmlns="http://www.w3.org/2000/svg"><g fill="#1c8aa9"><path clip-rule="evenodd" d="m13.0948 2.75372h-.3396v-.88427c0-.48632-.384-.86945-.8713-.86945-.4874 0-.8713.38313-.8713.86945v.88427h-2.14144v-.88427c0-.48632-.38395-.86945-.87129-.86945-.48735 0-.87129.38313-.87129.86945v.88427h-2.14134v-.88427c0-.48632-.38394-.86945-.87129-.86945-.48734 0-.87129.38313-.87129.86945v.88427h-.33963c-1.04859 0-1.90503.85474-1.90503 1.90101v8.44427c0 1.0464.85655 1.901 1.90503 1.901h5.0946c-.28799-.3834-.52215-.8096-.69124-1.2673h-4.40352c-.35446 0-.63498-.28-.63498-.6336l-.0001-6.44004h11.46001v.64824c.4588.16918.886.40372 1.2702.69233v-3.3449c0-1.04627-.8566-1.90101-1.9052-1.90101zm-4.06342 5.22253c-.04175-.03098-.09241-.04974-.14542-.04974h-1.77224c-.13289 0-.25105.11791-.25105.25052v1.11998c0 .13261.11816.25051.25105.25051l.52803.00003c.34788-.61689.82296-1.15252 1.38963-1.5713zm-1.89362 2.85325h-.02404c-.13289 0-.25105.1179-.25105.2505v1.12c0 .0994.06636.1905.15556.2299-.01207-.1417-.01823-.2851-.01823-.4299 0-.4031.0477-.795.13776-1.1705zm-1.54531-2.90299h-1.75742c-.13289 0-.25105.11791-.25105.25052v1.11998c0 .13261.11816.25051.25105.25051h1.75742c.13289 0 .25105-.11791.25105-.25051v-1.11998c0-.13261-.11806-.25052-.25105-.25052zm-1.75742 2.90299h1.75742c.13299 0 .25105.1179.25105.2505v1.12c0 .1326-.11816.2505-.25105.2505h-1.75742c-.13289 0-.25105-.1179-.25105-.2505v-1.12c0-.1326.11816-.2505.25105-.2505z" fill-rule="evenodd"/><path clip-rule="evenodd" d="m11.916 14.5236c1.4115 0 2.5558-1.1443 2.5558-2.5558 0-1.4116-1.1443-2.55583-2.5558-2.55583s-2.55579 1.14423-2.55579 2.55583c0 1.4115 1.14429 2.5558 2.55579 2.5558zm0 1.0223c1.9762 0 3.5781-1.602 3.5781-3.5781 0-1.97617-1.6019-3.57815-3.5781-3.57815-1.97613 0-3.57811 1.60198-3.57811 3.57815 0 1.9761 1.60198 3.5781 3.57811 3.5781z" fill-rule="evenodd"/><path d="m12.8421 10.8257-1.2432 1.018-.3096-.4017c-.1942-.2505-.5491-.294-.7969-.0974-.2465.1967-.2894.5587-.0958.8098l.6645.8611c.0933.1211.2307.1999.3814.2172.0215.0025.0429.0038.065.0038.1286 0 .2547-.0448.3555-.1275l1.6909-1.3838c.2447-.2005.2825-.5632.0864-.8111-.1967-.2479-.5542-.2889-.7982-.0884z"/></g></svg>

<svg width="16" height="16" viewBox="0 0 16 16" fill="none" xmlns="http://www.w3.org/2000/svg">
<path fill-rule="evenodd" clip-rule="evenodd" d="M13.0948 2.75372H12.7552V1.86945C12.7552 1.38313 12.3712 1 11.8839 1C11.3965 1 11.0126 1.38313 11.0126 1.86945V2.75372H8.87116V1.86945C8.87116 1.38313 8.48721 1 7.99987 1C7.51252 1 7.12858 1.38313 7.12858 1.86945V2.75372H4.98724V1.86945C4.98724 1.38313 4.6033 1 4.11595 1C3.62861 1 3.24466 1.38313 3.24466 1.86945V2.75372H2.90503C1.85644 2.75372 1 3.60846 1 4.65473V13.099C1 14.1454 1.85655 15 2.90503 15H7.99963C7.71164 14.6166 7.47748 14.1904 7.30839 13.7327H2.90487C2.55041 13.7327 2.26989 13.4527 2.26989 13.0991L2.26979 6.65906H13.7298V7.3073C14.1886 7.47648 14.6158 7.71102 15 7.99963V4.65473C15 3.60846 14.1434 2.75372 13.0948 2.75372ZM9.03138 7.97625C8.98963 7.94527 8.93897 7.92651 8.88596 7.92651H7.11372C6.98083 7.92651 6.86267 8.04442 6.86267 8.17703V9.29701C6.86267 9.42962 6.98083 9.54752 7.11372 9.54752L7.64175 9.54755C7.98963 8.93066 8.46471 8.39503 9.03138 7.97625ZM7.13776 10.8295H7.11372C6.98083 10.8295 6.86267 10.9474 6.86267 11.08V12.2C6.86267 12.2994 6.92903 12.3905 7.01823 12.4299C7.00616 12.2882 7 12.1448 7 12C7 11.5969 7.0477 11.205 7.13776 10.8295ZM5.59245 7.92651H3.83503C3.70214 7.92651 3.58398 8.04442 3.58398 8.17703V9.29701C3.58398 9.42962 3.70214 9.54752 3.83503 9.54752H5.59245C5.72534 9.54752 5.8435 9.42961 5.8435 9.29701V8.17703C5.8435 8.04442 5.72544 7.92651 5.59245 7.92651ZM3.83503 10.8295H5.59245C5.72544 10.8295 5.8435 10.9474 5.8435 11.08V12.2C5.8435 12.3326 5.72534 12.4505 5.59245 12.4505H3.83503C3.70214 12.4505 3.58398 12.3326 3.58398 12.2V11.08C3.58398 10.9474 3.70214 10.8295 3.83503 10.8295Z" fill="#1C8AA9"/>
<path fill-rule="evenodd" clip-rule="evenodd" d="M11.916 14.5236C13.3275 14.5236 14.4718 13.3793 14.4718 11.9678C14.4718 10.5562 13.3275 9.41197 11.916 9.41197C10.5045 9.41197 9.36021 10.5562 9.36021 11.9678C9.36021 13.3793 10.5045 14.5236 11.916 14.5236ZM11.916 15.5459C13.8922 15.5459 15.4941 13.9439 15.4941 11.9678C15.4941 9.99163 13.8922 8.38965 11.916 8.38965C9.93987 8.38965 8.33789 9.99163 8.33789 11.9678C8.33789 13.9439 9.93987 15.5459 11.916 15.5459Z" fill="#1C8AA9"/>
<path d="M12.8421 10.8257L11.5989 11.8437L11.2893 11.442C11.0951 11.1915 10.7402 11.148 10.4924 11.3446C10.2459 11.5413 10.203 11.9033 10.3966 12.1544L11.0611 13.0155C11.1544 13.1366 11.2918 13.2154 11.4425 13.2327C11.464 13.2352 11.4854 13.2365 11.5075 13.2365C11.6361 13.2365 11.7622 13.1917 11.863 13.109L13.5539 11.7252C13.7986 11.5247 13.8364 11.162 13.6403 10.9141C13.4436 10.6662 13.0861 10.6252 12.8421 10.8257Z" fill="#1C8AA9"/>
</svg>
